X:13105
T:Pigeon on the Gate, The
R:reel
H:See also #140, #141, #532, #653, #655, #656
B:O'Neill's 1850
Z:id:hn-reel-654
M:C|
K:Ador
gf|:eA (3AAA egfg|eA (3AAA e2dB|1 G2BG DGBG|GBdf g2fg:|2 GBdf g2ga|bagb a2||
ag|eaag abag|eaab c'bag|eggf gage|dega bgag|
eaag abag|eaab c'bag|edef gage|dBGB A2||
